X: 28
T: WARWICKSLAND
C: Andrew Rankine
R: jig
B: "The Complete Andrew Rankine Collection of Scottish Country Dance Tunes" p.33
Z: 2017 John Chambers <jc:trillian.mit.edu>
M: 6/8
L: 1/8
K: D
F/G/ |\
"D"AFG A2d | "G"BGA BdB | "D"Ade "Bm"fed | "E7"e3- "A7"e2F/G/ |\
"D"AFG A2d/c/ | "G"BGB d2c/B/ | "D"Aed "A7"cBc | "D"d3- d2 :|
|: F/G/ |\
"D"Ade fdA | "A7"AGG G2E/F/ | Gee ecA | "D"GFF F2G |\
"D"Ade fdA | "A7"AGG G2E/F/ | Ged cBc | "D"d3- d2 :|

%%sep 1 1 500

